svgs/firefox.svg

<svg width="192" height="192" viewBox="0 0 192 192" fill="none" xmlns="http://www.w3.org/2000/svg"><path d="m51.902 43.143 5.977-.532a6 6 0 0 0-9.71-4.165l3.733 4.697Zm1.882 21.143-5.977.532a6 6 0 0 0 9.664 4.2l-3.687-4.732Zm17.27-13.455h6a6 6 0 0 0-9.687-4.733l3.687 4.733ZM96 87.351v6a6 6 0 0 0 2.466-11.47L96 87.35Zm-25.752 23.065h-6c0 .578.083 1.154.248 1.708l5.752-1.708ZM119.027 22l5.368-2.68a5.998 5.998 0 0 0-9.213-1.926L119.027 22ZM96 64.286h-6a6 6 0 0 0 6 6v-6Zm33.244 19.22-.949 5.925a6 6 0 0 0 6.145-8.925l-5.196 3Zm-17.893-2.865.949-5.924a6 6 0 0 0-4.385 10.843l3.436-4.919ZM161 98.883C161 134.855 131.889 164 96 164v12c42.535 0 77-34.536 77-77.117h-12ZM96 164c-35.89 0-65-29.145-65-65.117H19C19 141.464 53.465 176 96 176v-12ZM31 98.883c0-20.681 9.617-39.106 24.635-51.043l-7.466-9.394C30.406 52.564 19 74.393 19 98.883h12Zm14.926-55.208 1.881 21.143 11.953-1.064-1.88-21.144-11.953 1.064ZM57.47 69.019l17.27-13.455-7.374-9.466-17.27 13.455 7.374 9.466Zm7.583-18.188c0 10.978 1.459 19.48 6.385 26.418 4.835 6.81 12.386 11.195 22.095 15.572l4.932-10.94c-9.48-4.273-14.402-7.577-17.242-11.578-2.75-3.874-4.17-9.307-4.17-19.472h-12Zm51.811 51.896c0 11.557-9.351 20.909-20.865 20.909v12c18.16 0 32.865-14.743 32.865-32.909h-12ZM96 123.636c-9.436 0-17.432-6.284-20-14.929l-11.504 3.417c4.037 13.586 16.6 23.512 31.504 23.512v-12Zm0-42.285c-3.168 0-6.653 1.114-9.746 2.52-3.23 1.469-6.621 3.527-9.726 5.978-3.093 2.441-6.07 5.406-8.317 8.753-2.233 3.325-3.963 7.363-3.963 11.814h12c0-1.316.528-3.044 1.926-5.125 1.381-2.059 3.403-4.14 5.789-6.023 2.374-1.874 4.94-3.42 7.259-4.473C93.677 93.678 95.33 93.35 96 93.35v-12Zm17.659-56.671c8.175 16.378 21.192 27.763 30.694 38.099C154.066 73.343 161 83.46 161 98.882h12c0-19.928-9.377-32.875-19.813-44.226-10.646-11.58-21.616-20.962-28.792-35.337l-10.736 5.36Zm5.368-2.68c-3.845-4.606-3.846-4.605-3.848-4.604l-.003.003-.009.007-.023.02-.071.06-.238.205c-.199.172-.479.419-.827.734-.695.63-1.668 1.54-2.825 2.7a92.319 92.319 0 0 0-8.472 9.772C96.648 38.995 90 50.845 90 64.286h12c0-9.625 4.866-18.917 10.316-26.196a80.385 80.385 0 0 1 7.359-8.487 66.952 66.952 0 0 1 2.392-2.286 37.728 37.728 0 0 1 .782-.692l.028-.023.001-.001-.002.002-.002.001c-.001.001-.002.002-3.847-4.604ZM96 70.286c11.972 0 22.439 6.508 28.048 16.221l10.392-6.001c-7.662-13.267-22.001-22.22-38.44-22.22v12Zm11.915 15.274c5.42 3.787 8.95 10.063 8.95 17.167h12c0-11.184-5.578-21.066-14.077-27.004l-6.873 9.837Zm22.278-7.978L112.3 74.717l-1.897 11.849 17.892 2.865 1.898-11.849Z" fill="#000"/></svg>

<?xml version="1.0" encoding="UTF-8" standalone="no"?><svg xmlns:android="http://schemas.android.com/apk/res/android" height="192" width="192" xmlns="http://www.w3.org/2000/svg">
  <path d="M51.902,43.143L57.879,42.611C57.683,40.412 56.296,38.499 54.268,37.629C52.239,36.759 49.897,37.072 48.169,38.446L51.902,43.143ZM53.784,64.286L47.807,64.818C48.002,67.006 49.377,68.912 51.392,69.788C53.406,70.664 55.738,70.369 57.471,69.019L53.784,64.286ZM71.054,50.831H77.054C77.054,48.539 75.748,46.447 73.688,45.44C71.628,44.434 69.175,44.689 67.367,46.098L71.054,50.831ZM96,87.351V93.351C98.828,93.351 101.272,91.376 101.866,88.612C102.46,85.847 101.044,83.043 98.466,81.881L96,87.351ZM70.248,110.416H64.248C64.248,110.994 64.331,111.57 64.496,112.124L70.248,110.416ZM119.027,22L124.395,19.32C123.576,17.679 122.051,16.503 120.255,16.127C118.459,15.752 116.591,16.218 115.182,17.394L119.027,22ZM96,64.286H90C90,67.599 92.686,70.286 96,70.286V64.286ZM129.244,83.507L128.295,89.431C130.581,89.797 132.873,88.815 134.186,86.909C135.499,85.002 135.597,82.51 134.44,80.506L129.244,83.507ZM111.351,80.641L112.3,74.717C109.538,74.275 106.838,75.799 105.789,78.392C104.74,80.985 105.622,83.958 107.915,85.56L111.351,80.641ZM161,98.883C161,134.855 131.889,164 96,164V176C138.535,176 173,141.464 173,98.883H161ZM96,164C60.111,164 31,134.855 31,98.883H19C19,141.464 53.465,176 96,176V164ZM31,98.883C31,78.201 40.617,59.777 55.635,47.84L48.169,38.446C30.406,52.564 19,74.393 19,98.883H31ZM45.926,43.675L47.807,64.818L59.76,63.754L57.879,42.611L45.926,43.675ZM57.471,69.019L74.742,55.564L67.367,46.098L50.096,59.553L57.471,69.019ZM65.054,50.831C65.054,61.809 66.513,70.311 71.439,77.249C76.274,84.06 83.825,88.444 93.534,92.821L98.466,81.881C88.985,77.607 84.064,74.304 81.224,70.303C78.474,66.429 77.054,60.996 77.054,50.831H65.054ZM116.865,102.727C116.865,114.284 107.514,123.636 96,123.636V135.636C114.16,135.636 128.865,120.893 128.865,102.727H116.865ZM96,123.636C86.564,123.636 78.568,117.352 75.999,108.707L64.496,112.124C68.533,125.71 81.097,135.636 96,135.636V123.636ZM96,81.351C92.832,81.351 89.348,82.465 86.255,83.871C83.025,85.34 79.633,87.398 76.528,89.849C73.435,92.29 70.458,95.255 68.211,98.602C65.978,101.927 64.248,105.965 64.248,110.416H76.248C76.248,109.1 76.776,107.372 78.174,105.291C79.555,103.232 81.577,101.151 83.963,99.268C86.337,97.394 88.903,95.849 91.221,94.795C93.677,93.678 95.33,93.351 96,93.351V81.351ZM113.659,24.68C121.834,41.058 134.851,52.443 144.353,62.778C154.066,73.343 161,83.461 161,98.883H173C173,78.955 163.623,66.008 153.187,54.657C142.541,43.077 131.571,33.695 124.395,19.32L113.659,24.68ZM119.027,22C115.182,17.394 115.181,17.395 115.179,17.396C115.179,17.397 115.177,17.398 115.176,17.399C115.173,17.401 115.171,17.404 115.167,17.406C115.161,17.412 115.153,17.418 115.144,17.426C115.126,17.441 115.102,17.461 115.073,17.486C115.015,17.536 114.935,17.604 114.835,17.691C114.636,17.864 114.356,18.11 114.008,18.425C113.313,19.055 112.34,19.965 111.183,21.125C108.875,23.436 105.798,26.774 102.711,30.897C96.648,38.995 90,50.845 90,64.286H102C102,54.661 106.866,45.369 112.316,38.09C114.986,34.524 117.666,31.615 119.675,29.603C120.677,28.6 121.503,27.828 122.067,27.317C122.348,27.062 122.564,26.872 122.702,26.752C122.771,26.692 122.82,26.65 122.849,26.625C122.864,26.613 122.873,26.605 122.877,26.602C122.879,26.601 122.879,26.6 122.878,26.601C122.878,26.601 122.877,26.602 122.876,26.603C122.876,26.603 122.875,26.604 122.874,26.604C122.873,26.605 122.872,26.606 119.027,22ZM96,70.286C107.972,70.286 118.439,76.794 124.048,86.507L134.44,80.506C126.778,67.239 112.439,58.286 96,58.286V70.286ZM107.915,85.56C113.335,89.347 116.865,95.623 116.865,102.727H128.865C128.865,91.543 123.287,81.661 114.788,75.723L107.915,85.56ZM130.193,77.582L112.3,74.717L110.403,86.566L128.295,89.431L130.193,77.582Z" fill="#000000"/>
</svg>
